X: 594
T: Dîdem Yüzüne Nâzır
C: Yahyâ Nazîm Çelebi
O: Turkey
F: http://compmusic.upf.edu/node/140
N: sehnaz--agirsemai--senginsemai--didem_yuzune--yahya_nazim_celebi
N: makam= sehnaz
N: form= agirsemai
N: usul= senginsemai = 6/4
M: 6/4
L: 1/16
K: C _7/8B ^1/4f ^c ^g
Q: 1/4=72
%%MIDI tuningsystem comma53
A4 a4 a/g/a/=b/ag f/e/f/g/fe e8  | \
w:  ARANAĞME  | 
e3^3/4f =g4 g/f/g/a/gf e/d/e/=f/ed c8  | 
w:   | 
f3a =g3=f e3g f2e2 d.a.a.a =c'/=b/a/g/f/e/d/e/  | \
w:   | 
c3B A4 B3A =GcBA A8  | 
w:   | 
A4 a4 a3/2=b/ab =c'bag a6z2  | a4 =b4 =c'2ba c'ba{b}g a6z2  | 
w:  Dî dem  yü *  *  *  zü *  *  *  ne   |  nâ *  *  *  *  *  *  *  *  *  zır   | 
a4 =b4 =c'4 ba2c' bagf e4  | =b3/2=c'/ba a3/2b/ag g3/2a/gf fe{g}fe e3b agfe  | 
w:  nâ zır  yü zü *  *  ne   |  dî *  *  *  *  *  *  *  *  *  *  *  *  *  *  *  *  dem   SAZ  | 
d4 a4 a4 a3/2=b/a=g b3/2=c'/ba g4  | \
w:  Kıb lem  o la *  *  *  lı   | 
=g3/2a/g^3/4f a3/2=b/ag f4 e2ef g3/2a/g^1/4f e3z  | 
w:  ka *  *  *  *  *  *  *  *  şın   | 
d3/2e/de =f3/2=g/fe e3/2f/ed cdef edcB A3z  | 
w:  ka *  *  *  şın  *  *  *  o *  *  *  la *  *  *  lı   | 
A3/2B/AB c3A B3A G2{c}BA A3=b a=gfe  | \
w:  kıb *  *  *  *  *  *  *  *  *  *  *  lem   SAZ  | 
d4 a4 a4 a3/2=b/a=g b3/2=c'/ba g4  | 
w:  Kıb lem  o la *  *  *  lı   | 
=g3/2a/g^3/4f a3/2=b/ag f4 e2ef g3/2a/g^1/4f e3z  | \
w:  ka *  *  *  *  *  *  *  *  şın   | 
d3/2e/de =f3/2=g/fe e3/2f/ed cdef edcB A3z  | 
w:  ka *  *  *  şın  *  *  *  o *  *  *  la *  *  *  lı   | 
A3/2B/AB c3A B3A G2{c}BA A3A Bcd2  | \
w:  kıb *  *  *  *  *  *  *  *  *  *  *  lem   SAZ  | 
A4 d4 c2d2 =fedc d6z2  | 
w:  Gam zen  ci *  ğe *  *  *  rim   | 
d2{e}d2 e4 =f2ed (3ffedc d6z2  | a3=g g4 g4 g2{_b}ag =f3/2g/fe d3z  | 
w:  del *  *  *  *  *  *  *  *  *  *  *  di   |  del *  di  ci ğe *  *  *  rim   | 
e3=f =g3f f3e ed2f edcB A4  | A4 d4 c2d2 =fedc d6z2  | 
w:  gam *  *  *  *  *  *  *  *  zen    |  Gam zen  ci *  ğe *  *  *  rim   | 
d2{e}d2 e4 =f2ed (3ffedc d6z2  | d4 a4 a3/2=b/ab =c'bag a6z2  | 
w:  del *  *  *  *  *  *  *  *  *  *  *  di   |  del di  ci *  *  *  ğe *  *  *  rim   | 
a4 =b4 =c'2ba c'bag a3b agfe  | d4 a4 a4 a3/2=b/a=g b3/2=c'/ba g4  | 
w:  gam *  *  *  *  *  *  *  *  zen   SAZ  |  Kıb lem  o la *  *  *  lı   | 
=g3/2a/g^3/4f a3/2=b/ag f4 e2ef g3/2a/g^1/4f e3z  | \
w:  ka *  *  *  *  *  *  *  *  şın   | 
d3/2e/de =f3/2=g/fe e3/2f/ed cdef edcB A3z  | 
w:  ka *  *  *  şın  *  *  *  o *  *  *  la *  *  *  lı   | 
A3/2B/AB c3A B3A G2{c}BA A3=b a=gfe  | \
w:  kıb *  *  *  *  *  *  *  *  *  *  *  lem   SAZ  | 
d4 a4 a4 a3/2=b/a=g b3/2=c'/ba g4  | 
w:  Kıb lem  o la *  *  *  lı   | 
=g3/2a/g^3/4f a3/2=b/ag f4 e2ef g3/2a/g^1/4f e3z  | \
w:  ka *  *  *  *  *  *  *  *  şın   | 
d3/2e/de =f3/2=g/fe e3/2f/ed cdef edcB A3z  | 
w:  ka *  *  *  şın  *  *  *  o *  *  *  la *  *  *  lı   | 
A3/2B/AB c3A B3A G2{c}BA A3|
w:  kıb *  *  *  *  *  *  *  *  *  *  *  lem    | 


